assets/dadi-foundation.svg

<?xml version="1.0" encoding="UTF-8"?>
<svg width="286px" height="234px" viewBox="0 0 286 234" version="1.1" xmlns="http://www.w3.org/2000/svg" xmlns:xlink="http://www.w3.org/1999/xlink">
    <!-- Generator: Sketch 49.2 (51160) - http://www.bohemiancoding.com/sketch -->
    <title>logo</title>
    <desc>Created with Sketch.</desc>
    <defs>
        <polygon id="path-1" points="0.000606375858 0.514206727 141.944705 0.514206727 141.944705 166.861175 0.000606375858 166.861175"></polygon>
        <polygon id="path-3" points="0 234.759626 284.966334 234.759626 284.966334 1.21275172 0 1.21275172"></polygon>
    </defs>
    <g id="Page-1" stroke="none" stroke-width="1" fill="none" fill-rule="evenodd">
        <g id="Homepage-mockup" transform="translate(-70.000000, -93.000000)">
            <g id="logo" transform="translate(70.371702, 92.187500)">
                <path d="M124.510793,67.8254439 L108.075582,67.8254439 C98.9993481,67.8254439 91.6403707,75.1844213 91.6403707,84.2618679 C91.6403707,93.336889 98.9993481,100.695866 108.075582,100.695866 L124.510793,100.695866 C133.587027,100.695866 140.947217,93.336889 140.947217,84.2618679 C140.947217,75.1844213 133.587027,67.8254439 124.510793,67.8254439" id="Fill-1" fill="#F44B00"></path>
                <g id="Group-5" transform="translate(0.000000, 0.698545)">
                    <mask id="mask-2" fill="white">
                        <use xlink:href="#path-1"></use>
                    </mask>
                    <g id="Clip-4"></g>
                    <path d="M141.944705,16.9505095 C141.944705,7.87427562 134.584515,0.514085452 125.509494,0.514085452 L61.2603338,0.514085452 C52.1841,0.514085452 44.8239098,7.87427562 44.8239098,16.9505095 L44.8239098,67.1268989 L16.4358176,67.1268989 C7.35958379,67.1268989 0.000606375858,74.4858764 0.000606375858,83.5633229 C0.000606375858,92.638344 7.35958379,99.9985342 16.4358176,99.9985342 L44.8239098,99.9985342 L44.8239098,150.425963 C44.8239098,159.502197 52.1841,166.861175 61.2603338,166.861175 C70.3365676,166.861175 77.695545,159.502197 77.695545,150.425963 L77.695545,33.3857207 L125.509494,33.3857207 C134.584515,33.3857207 141.944705,26.0255305 141.944705,16.9505095" id="Fill-3" fill="#F44B00" mask="url(#mask-2)"></path>
                </g>
                <mask id="mask-4" fill="white">
                    <use xlink:href="#path-3"></use>
                </mask>
                <g id="Clip-7"></g>
                <path d="M171.999725,199.603167 L178.785071,199.603167 L178.785071,177.02173 L171.999725,177.02173 L171.999725,199.603167 Z M171.315733,170.977375 C171.315733,168.754401 173.140924,166.92921 175.363898,166.92921 C177.588085,166.92921 179.412063,168.754401 179.412063,170.977375 C179.412063,173.201562 177.588085,175.02554 175.363898,175.02554 C173.140924,175.02554 171.315733,173.201562 171.315733,170.977375 Z M161.335999,188.312448 C161.335999,184.948275 159.056026,182.781088 155.976849,182.781088 C152.897673,182.781088 150.616487,184.891276 150.616487,188.312448 C150.616487,191.676621 152.897673,193.843809 155.976849,193.843809 C159.056026,193.843809 161.335999,191.676621 161.335999,188.312448 Z M168.122558,167.955198 L168.122558,199.603167 L161.335999,199.603167 L161.335999,197.492979 C159.854016,199.204171 157.62983,200.230159 154.607652,200.230159 C148.677297,200.230159 143.831141,195.040795 143.831141,188.312448 C143.831141,181.584102 148.734296,176.393524 154.607652,176.393524 C157.62983,176.393524 159.854016,177.420725 161.335999,179.131918 L161.335999,167.955198 L168.122558,167.955198 Z M134.706397,188.312448 C134.706397,184.948275 132.425211,182.781088 129.346034,182.781088 C126.266858,182.781088 123.985672,184.891276 123.985672,188.312448 C123.985672,191.676621 126.266858,193.843809 129.346034,193.843809 C132.425211,193.843809 134.706397,191.676621 134.706397,188.312448 Z M141.491743,177.02173 L141.491743,199.603167 L134.706397,199.603167 L134.706397,197.492979 C133.224414,199.204171 131.000228,200.230159 127.97805,200.230159 C122.047694,200.230159 117.200326,195.040795 117.200326,188.312448 C117.200326,181.584102 122.104694,176.393524 127.97805,176.393524 C131.000228,176.393524 133.224414,177.420725 134.706397,179.131918 L134.706397,177.02173 L141.491743,177.02173 Z M108.076795,188.312448 C108.076795,184.948275 105.795609,182.781088 102.716432,182.781088 C99.6372555,182.781088 97.3560695,184.891276 97.3560695,188.312448 C97.3560695,191.676621 99.6372555,193.843809 102.716432,193.843809 C105.795609,193.843809 108.076795,191.676621 108.076795,188.312448 Z M114.862141,167.955198 L114.862141,199.603167 L108.076795,199.603167 L108.076795,197.492979 C106.594812,199.204171 104.370625,200.230159 101.348448,200.230159 C95.4180922,200.230159 90.5707236,195.040795 90.5707236,188.312448 C90.5707236,181.584102 95.4750916,176.393524 101.348448,176.393524 C104.370625,176.393524 106.594812,177.420725 108.076795,179.131918 L108.076795,167.955198 L114.862141,167.955198 Z" id="Fill-6" fill="#04111d" mask="url(#mask-4)"></path>
                <path d="M74.3231251,211.779315 L78.485289,211.779315 L78.485289,218.222665 L74.3231251,218.222665 L74.3231251,234.132755 L67.5947786,234.132755 L67.5947786,218.222665 L64.6283879,218.222665 L64.6283879,211.779315 L67.5947786,211.779315 C67.5947786,205.506963 71.0147384,201.799581 78.4282896,202.199789 L78.4282896,208.643139 C75.9761057,208.415142 74.3231251,209.213133 74.3231251,211.779315" id="Fill-8" fill="#04111d" mask="url(#mask-4)"></path>
                <path d="M96.6760796,222.955792 C96.6760796,219.762617 94.451893,217.709428 91.5437143,217.709428 C88.6355357,217.709428 86.4113491,219.819616 86.4113491,222.955792 C86.4113491,226.091968 88.6355357,228.202156 91.5437143,228.202156 C94.451893,228.202156 96.6760796,226.148968 96.6760796,222.955792 M79.6830026,222.955792 C79.6830026,216.284445 84.9293665,211.15208 91.5437143,211.15208 C98.1010629,211.15208 103.404426,216.284445 103.404426,222.955792 C103.404426,229.62714 98.1580622,234.759505 91.5437143,234.759505 C84.9863658,234.759505 79.6830026,229.62714 79.6830026,222.955792" id="Fill-9" fill="#04111d" mask="url(#mask-4)"></path>
                <path d="M127.183213,211.779315 L127.183213,234.132755 L120.454866,234.132755 L120.454866,232.022567 C119.256668,233.67676 117.033694,234.759747 114.068516,234.759747 C109.563143,234.759747 105.742975,231.565359 105.742975,225.522218 L105.742975,211.779315 L112.471322,211.779315 L112.471322,224.495017 C112.471322,227.289197 114.239514,228.544395 116.348489,228.544395 C118.800673,228.544395 120.511866,227.118199 120.511866,223.926236 L120.511866,211.779315 L127.183213,211.779315 Z" id="Fill-10" fill="#04111d" mask="url(#mask-4)"></path>
                <path d="M151.817232,220.389367 L151.817232,234.07527 L145.088886,234.07527 L145.088886,221.416568 C145.088886,218.622388 143.320694,217.36719 141.210506,217.36719 C138.758322,217.36719 137.048342,218.793386 137.048342,221.985348 L137.048342,234.189269 L130.319995,234.189269 L130.319995,211.77883 L137.048342,211.77883 L137.048342,213.889018 C138.24654,212.234825 140.469514,211.151837 143.434692,211.151837 C147.940065,211.151837 151.817232,214.402012 151.817232,220.389367" id="Fill-11" fill="#04111d" mask="url(#mask-4)"></path>
                <path d="M172.060362,222.955792 C172.060362,219.591619 169.837389,217.481431 166.756999,217.481431 C163.677823,217.481431 161.453636,219.591619 161.453636,222.955792 C161.453636,226.319966 163.677823,228.430154 166.756999,228.430154 C169.837389,228.430154 172.060362,226.319966 172.060362,222.955792 Z M178.73171,202.826539 L178.73171,234.075513 L172.003363,234.075513 L172.003363,231.965325 C170.520168,233.676518 168.354193,234.703718 165.332016,234.703718 C159.458659,234.703718 154.66829,229.57014 154.66829,222.898793 C154.66829,216.227446 159.515659,211.095081 165.332016,211.095081 C168.297194,211.095081 170.520168,212.121069 172.003363,213.832261 L172.003363,202.826539 L178.73171,202.826539 Z" id="Fill-12" fill="#04111d" mask="url(#mask-4)"></path>
                <path d="M198.747328,222.955792 C198.747328,219.591619 196.523141,217.481431 193.443965,217.481431 C190.364788,217.481431 188.140601,219.591619 188.140601,222.955792 C188.140601,226.319966 190.364788,228.430154 193.443965,228.430154 C196.523141,228.430154 198.747328,226.319966 198.747328,222.955792 Z M205.418675,211.779073 L205.418675,234.132512 L198.690328,234.132512 L198.690328,232.023537 C197.207133,233.733517 195.041159,234.759505 192.018981,234.759505 C186.145625,234.759505 181.355255,229.62714 181.355255,222.955792 C181.355255,216.284445 186.202624,211.15208 192.018981,211.15208 C194.982946,211.15208 197.207133,212.178068 198.690328,213.888048 L198.690328,211.779073 L205.418675,211.779073 Z" id="Fill-13" fill="#04111d" mask="url(#mask-4)"></path>
                <path d="M218.819339,218.223271 L218.819339,226.148604 C218.819339,228.087794 220.473532,228.258792 223.43871,228.087794 L223.43871,234.189148 C214.657175,235.10235 212.147992,232.422168 212.147992,226.205603 L212.147992,218.223271 L208.555821,218.223271 L208.555821,211.779922 L212.147992,211.779922 L212.147992,207.559546 L218.876338,205.564569 L218.876338,211.835708 L223.494497,211.835708 L223.494497,218.223271 L218.819339,218.223271 Z" id="Fill-14" fill="#04111d" mask="url(#mask-4)"></path>
                <path d="M227.82875,234.132633 L234.557097,234.132633 L234.557097,211.779194 L227.82875,211.779194 L227.82875,234.132633 Z M227.144758,205.791839 C227.144758,203.624651 228.969949,201.743673 231.135924,201.743673 C233.303111,201.743673 235.185302,203.568865 235.185302,205.791839 C235.185302,207.959026 233.360111,209.840004 231.135924,209.840004 C228.969949,209.840004 227.144758,207.959026 227.144758,205.791839 Z" id="Fill-15" fill="#04111d" mask="url(#mask-4)"></path>
                <path d="M254.117084,222.955792 C254.117084,219.762617 251.892897,217.709428 248.984719,217.709428 C246.07654,217.709428 243.852353,219.819616 243.852353,222.955792 C243.852353,226.091968 246.07654,228.202156 248.984719,228.202156 C251.892897,228.202156 254.117084,226.148968 254.117084,222.955792 M237.181006,222.955792 C237.181006,216.284445 242.42737,211.15208 249.041718,211.15208 C255.599067,211.15208 260.90243,216.284445 260.90243,222.955792 C260.90243,229.62714 255.657279,234.759505 249.041718,234.759505 C242.42737,234.759505 237.181006,229.62714 237.181006,222.955792" id="Fill-16" fill="#04111d" mask="url(#mask-4)"></path>
                <path d="M284.966456,220.389367 L284.966456,234.07527 L278.238109,234.07527 L278.238109,221.416568 C278.238109,218.622388 276.469917,217.36719 274.359729,217.36719 C271.907545,217.36719 270.197565,218.793386 270.197565,221.985348 L270.197565,234.189269 L263.468006,234.189269 L263.468006,211.77883 L270.197565,211.77883 L270.197565,213.889018 C271.394551,212.234825 273.618738,211.151837 276.583916,211.151837 C281.089288,211.151837 284.966456,214.402012 284.966456,220.389367" id="Fill-17" fill="#04111d" mask="url(#mask-4)"></path>
            </g>
        </g>
    </g>
</svg>

<svg width="286" height="234" viewBox="0 0 286 234" xmlns="http://www.w3.org/2000/svg" xmlns:xlink="http://www.w3.org/1999/xlink"><title>logo</title><defs><path id="a" d="M0 .514h141.945v166.347H0z"/><path id="c" d="M0 234.76h284.966V1.213H0z"/></defs><g transform="translate(.372 -.813)" fill="none" fill-rule="evenodd"><path d="M124.51 67.825h-16.434c-9.077 0-16.436 7.36-16.436 16.437 0 9.075 7.36 16.434 16.436 16.434h16.435c9.076 0 16.436-7.36 16.436-16.434 0-9.078-7.36-16.437-16.436-16.437" fill="#F44B00"/><g transform="translate(0 .699)"><mask id="b" fill="#fff"><use xlink:href="#a"/></mask><path d="M141.945 16.95c0-9.076-7.36-16.436-16.436-16.436H61.26c-9.076 0-16.436 7.36-16.436 16.437v50.176H16.436C7.36 67.127 0 74.486 0 83.563 0 92.638 7.36 100 16.436 100h28.388v50.427c0 9.076 7.36 16.435 16.436 16.435 9.077 0 16.436-7.359 16.436-16.435V33.386h47.813c9.076 0 16.436-7.36 16.436-16.435" fill="#F44B00" mask="url(#b)"/></g><mask id="d" fill="#fff"><use xlink:href="#c"/></mask><path d="M172 199.603h6.785v-22.581H172v22.581zm-.684-28.626a4.065 4.065 0 0 1 4.048-4.048 4.064 4.064 0 0 1 4.048 4.048 4.063 4.063 0 0 1-4.048 4.049 4.064 4.064 0 0 1-4.048-4.049zm-9.98 17.335c0-3.364-2.28-5.53-5.36-5.53-3.078 0-5.36 2.11-5.36 5.53 0 3.365 2.282 5.532 5.36 5.532 3.08 0 5.36-2.167 5.36-5.532zm6.787-20.357v31.648h-6.787v-2.11c-1.482 1.711-3.706 2.737-6.728 2.737-5.93 0-10.777-5.19-10.777-11.918 0-6.728 4.903-11.918 10.777-11.918 3.022 0 5.246 1.027 6.728 2.738v-11.177h6.787zm-33.417 20.357c0-3.364-2.28-5.53-5.36-5.53-3.08 0-5.36 2.11-5.36 5.53 0 3.365 2.28 5.532 5.36 5.532 3.08 0 5.36-2.167 5.36-5.532zm6.786-11.29v22.581h-6.786v-2.11c-1.482 1.711-3.706 2.737-6.728 2.737-5.93 0-10.778-5.19-10.778-11.918 0-6.728 4.905-11.918 10.778-11.918 3.022 0 5.246 1.027 6.728 2.738v-2.11h6.786zm-33.415 11.29c0-3.364-2.281-5.53-5.36-5.53-3.08 0-5.36 2.11-5.36 5.53 0 3.365 2.28 5.532 5.36 5.532 3.079 0 5.36-2.167 5.36-5.532zm6.785-20.357v31.648h-6.785v-2.11c-1.482 1.711-3.706 2.737-6.729 2.737-5.93 0-10.777-5.19-10.777-11.918 0-6.728 4.904-11.918 10.777-11.918 3.023 0 5.247 1.027 6.729 2.738v-11.177h6.785zM74.323 211.78h4.162v6.443h-4.162v15.91h-6.728v-15.91h-2.967v-6.444h2.967c0-6.272 3.42-9.98 10.833-9.58v6.444c-2.452-.228-4.105.57-4.105 3.136M96.676 222.956c0-3.193-2.224-5.247-5.132-5.247-2.908 0-5.133 2.11-5.133 5.247 0 3.136 2.225 5.246 5.133 5.246s5.132-2.053 5.132-5.246m-16.993 0c0-6.672 5.246-11.804 11.86-11.804 6.558 0 11.861 5.132 11.861 11.804 0 6.671-5.246 11.804-11.86 11.804-6.558 0-11.861-5.133-11.861-11.804M127.183 211.78v22.353h-6.728v-2.11c-1.198 1.654-3.421 2.737-6.386 2.737-4.506 0-8.326-3.195-8.326-9.238V211.78h6.728v12.716c0 2.794 1.769 4.05 3.877 4.05 2.453 0 4.164-1.427 4.164-4.619V211.78h6.671zM151.817 220.39v13.685h-6.728v-12.658c0-2.795-1.768-4.05-3.878-4.05-2.453 0-4.163 1.426-4.163 4.618v12.204h-6.728v-22.41h6.728v2.11c1.199-1.654 3.422-2.737 6.387-2.737 4.505 0 8.382 3.25 8.382 9.237M172.06 222.956c0-3.364-2.223-5.475-5.303-5.475s-5.303 2.11-5.303 5.475c0 3.364 2.224 5.474 5.303 5.474 3.08 0 5.303-2.11 5.303-5.474zm6.672-20.13v31.25h-6.729v-2.11c-1.483 1.71-3.649 2.738-6.671 2.738-5.873 0-10.664-5.134-10.664-11.805 0-6.672 4.848-11.804 10.664-11.804 2.965 0 5.188 1.026 6.671 2.737v-11.005h6.729zM198.747 222.956c0-3.364-2.224-5.475-5.303-5.475-3.08 0-5.303 2.11-5.303 5.475 0 3.364 2.224 5.474 5.303 5.474 3.08 0 5.303-2.11 5.303-5.474zm6.672-11.177v22.354h-6.729v-2.11c-1.483 1.71-3.649 2.737-6.671 2.737-5.873 0-10.664-5.133-10.664-11.804 0-6.672 4.848-11.804 10.664-11.804 2.964 0 5.188 1.026 6.671 2.736v-2.109h6.729zM218.82 218.223v7.926c0 1.939 1.654 2.11 4.619 1.939v6.101c-8.782.913-11.291-1.767-11.291-7.983v-7.983h-3.592v-6.443h3.592v-4.22l6.728-1.995v6.27h4.618v6.388h-4.675zM227.829 234.133h6.728v-22.354h-6.728v22.354zm-.684-28.341c0-2.167 1.825-4.048 3.99-4.048 2.168 0 4.05 1.825 4.05 4.048 0 2.167-1.825 4.048-4.05 4.048-2.165 0-3.99-1.881-3.99-4.048zM254.117 222.956c0-3.193-2.224-5.247-5.132-5.247-2.908 0-5.133 2.11-5.133 5.247 0 3.136 2.225 5.246 5.133 5.246s5.132-2.053 5.132-5.246m-16.936 0c0-6.672 5.246-11.804 11.86-11.804 6.558 0 11.861 5.132 11.861 11.804 0 6.671-5.245 11.804-11.86 11.804-6.615 0-11.861-5.133-11.861-11.804M284.966 220.39v13.685h-6.728v-12.658c0-2.795-1.768-4.05-3.878-4.05-2.452 0-4.162 1.426-4.162 4.618v12.204h-6.73v-22.41h6.73v2.11c1.197-1.654 3.42-2.737 6.386-2.737 4.505 0 8.382 3.25 8.382 9.237" fill="#04111d" mask="url(#d)"/></g></svg>
